Newaita-dark/apps/48/system-software-update.svg

<svg height="48pt" viewBox="0 0 48 48" width="48pt" xmlns="http://www.w3.org/2000/svg" xmlns:xlink="http://www.w3.org/1999/xlink"><linearGradient id="a" gradientUnits="userSpaceOnUse" x1="23.81478" x2="23.81478" y1="42.0509045" y2="44.03547050005"><stop offset="0" stop-opacity=".27451"/><stop offset="1" stop-opacity="0"/></linearGradient><linearGradient id="b"><stop offset="0" stop-opacity=".313726"/><stop offset=".222222" stop-opacity=".27451"/><stop offset="1" stop-opacity="0"/></linearGradient><radialGradient id="c" cx="450.908936" cy="189.579361" gradientTransform="matrix(.00000026 -.117199 -.210958 -.00000015 79.684395 95.392999)" gradientUnits="userSpaceOnUse" r="21.166656" xlink:href="#b"/><radialGradient id="d" cx="450.908936" cy="189.579361" gradientTransform="matrix(-.00000026 .117199 .210958 .00000015 -31.80678 -11.291218)" gradientUnits="userSpaceOnUse" r="21.166656" xlink:href="#b"/><radialGradient id="e" cx="450.908936" cy="189.579361" gradientTransform="matrix(-.00000026 -.117199 .210958 -.00000015 -31.80678 95.392999)" gradientUnits="userSpaceOnUse" r="21.166656" xlink:href="#b"/><radialGradient id="f" cx="450.908936" cy="189.579361" gradientTransform="matrix(.00000026 .117199 -.210958 .00000015 79.684393 -11.291219)" gradientUnits="userSpaceOnUse" r="21.166656" xlink:href="#b"/><linearGradient id="g" gradientUnits="userSpaceOnUse" x1="23.814786" x2="23.814786" y1="42.0509015" y2="4.34415649995"><stop offset="0" stop-color="#ff7043"/><stop offset="1" stop-color="#ff8a65"/></linearGradient><linearGradient id="h" gradientUnits="userSpaceOnUse" x1="23.814786" x2="23.814786" y1="42.0509015" y2="4.34415649995"><stop offset="0" stop-color="#bdbdbd"/><stop offset="1" stop-color="#e0e0e0"/></linearGradient><path d="m7.691406 42.050781h32.496094v1.984375h-32.496094zm0 0" fill="url(#a)"/><path d="m40.1875 42.050781h3.96875v-1.984375h-3.96875zm0 0" fill="url(#c)"/><path d="m7.691406 42.050781h-3.96875v1.984375h3.96875zm0 0" fill="url(#d)"/><path d="m7.691406 42.050781h-3.96875v-1.984375h3.96875zm0 0" fill="url(#e)"/><path d="m40.1875 42.050781h3.96875v1.984375h-3.96875zm0 0" fill="url(#f)"/><path d="m5.457031 4.34375h36.714844c.820313 0 1.488281.667969 1.488281 1.488281v34.730469c0 .820312-.667968 1.488281-1.488281 1.488281h-36.714844c-.820312 0-1.488281-.667969-1.488281-1.488281v-34.730469c0-.820312.667969-1.488281 1.488281-1.488281zm0 0" fill="url(#g)"/><path d="m3.96875 39.941406v.496094c0 .824219.664062 1.488281 1.488281 1.488281h36.714844c.824219 0 1.488281-.664062 1.488281-1.488281v-.496094c0 .824219-.664062 1.488282-1.488281 1.488282h-36.714844c-.824219 0-1.488281-.664063-1.488281-1.488282zm0 0" fill-opacity=".235294"/><path d="m5.457031 4.472656c-.824219 0-1.488281.664063-1.488281 1.488282v.496093c0-.824219.664062-1.488281 1.488281-1.488281h36.714844c.824219 0 1.488281.664062 1.488281 1.488281v-.496093c0-.824219-.664062-1.488282-1.488281-1.488282zm0 0" fill="#fff" fill-opacity=".392157"/><path d="m5.457031 4.203125c-.898437 0-1.628906.730469-1.628906 1.628906v34.730469c0 .898438.730469 1.628906 1.628906 1.628906h36.714844c.898437 0 1.628906-.730468 1.628906-1.628906v-34.730469c0-.898437-.730469-1.628906-1.628906-1.628906zm0 .28125h36.714844c.75 0 1.347656.597656 1.347656 1.347656v34.730469c0 .75-.597656 1.347656-1.347656 1.347656h-36.714844c-.75 0-1.347656-.597656-1.347656-1.347656v-34.730469c0-.75.597656-1.347656 1.347656-1.347656zm0 0" fill="#212121"/><path d="m32.730469 11.195312c-.011719 0-.023438 0-.035157 0-.351562.015626-.671874.210938-.84375.519532l-1.167968 2.039062c-1.871094-1.535156-4.261719-2.457031-6.867188-2.457031-5.308594 0-9.734375 3.824219-10.667968 8.867187h2.90625c.871093-3.480468 3.988281-6.019531 7.761718-6.019531 2.109375 0 4.019532.796875 5.441406 2.105469l-1.378906 2.410156c-.390625.6875.105469 1.542969.898438 1.542969h7.9375c.792968 0 1.289062-.855469.894531-1.542969l-3.96875-6.945312c-.1875-.328125-.535156-.527344-.910156-.519532zm0 0" fill="url(#h)"/><path d="m15.074219 35.144531h.039062c.351563-.019531.667969-.214843.84375-.519531l1.167969-2.042969c1.871094 1.535157 4.261719 2.457031 6.867188 2.457031 5.308593 0 9.734374-3.824218 10.667968-8.863281h-2.90625c-.871094 3.480469-3.988281 6.019531-7.761718 6.019531-2.113282 0-4.019532-.796874-5.441407-2.109374l1.375-2.40625c.394531-.6875-.101562-1.542969-.894531-1.542969h-7.9375c-.792969 0-1.289062.855469-.898438 1.542969l3.96875 6.945312c.1875.324219.539063.523438.910157.519531zm0 0" fill="url(#h)"/><path d="m32.730469 11.195312c-.011719 0-.023438 0-.035157 0-.351562.015626-.671874.210938-.84375.519532l-1.167968 2.039062c-1.871094-1.535156-4.261719-2.457031-6.867188-2.457031-5.308594 0-9.734375 3.824219-10.667968 8.867187h.1875c1.246093-4.621093 5.46875-8.023437 10.480468-8.023437 2.605469 0 4.996094.917969 6.867188 2.453125l1.167968-2.039062c.171876-.308594.492188-.503907.84375-.519532h.035157c.375-.007812.722656.191406.910156.519532l3.96875 6.945312c.019531.03125.03125.058594.046875.089844.125-.28125.128906-.621094-.046875-.929688l-3.96875-6.945312c-.1875-.328125-.535156-.527344-.910156-.519532zm-3.792969 5.617188-1.058594 1.847656c-.175781.308594-.171875.648438-.042968.929688.011718-.03125.027343-.058594.042968-.089844l1.378906-2.40625c-.105468-.097656-.210937-.191406-.320312-.28125zm0 0" fill="#fff"/><path d="m23.816406 14.144531c-3.773437 0-6.890625 2.539063-7.761718 6.019531h-2.675782c-.089844.324219-.167968.65625-.230468.992188h2.90625c.871093-3.480469 3.988281-6.019531 7.761718-6.019531 1.929688 0 3.6875.664062 5.058594 1.777343l.382812-.664062c-1.421874-1.308594-3.332031-2.105469-5.441406-2.105469zm4.054688 5.523438c-.375.683593.117187 1.527343.90625 1.527343h7.9375c.785156 0 1.28125-.84375.902344-1.527343-.167969.308593-.496094.535156-.902344.535156h-7.9375c-.40625 0-.734375-.226563-.90625-.535156zm0 0" fill-opacity=".235294"/><path d="m349.091663-95.594736c-.124988 0-.249976 0-.374964 0-3.749642.166651-7.165982 2.249785-8.99914 5.541138l-12.457144 21.747923c-19.956428-16.373437-45.453993-26.205831-73.243006-26.205831-56.619593 0-103.823418 40.787772-113.780801 94.5743019h30.99704c9.290779-37.1214549 42.537605-64.2022019 82.783761-64.2022019 22.497852 0 42.870906 8.499188 58.036125 22.456188l-14.706929 25.705879c-4.166269 7.332633 1.124892 16.456762 9.582418 16.456762h84.658582c8.457526 0 13.748687-9.124129 9.540756-16.456762l-42.329291-74.076259c-1.999809-3.499666-5.707789-5.624463-9.707407-5.541138zm0 0" fill="none" stroke="#000" stroke-linejoin="round" stroke-width="3" transform="matrix(.093759 0 0 .093759 0 20.158175)"/><path d="m11.09375 26.136719c-.75 0-1.234375.765625-.953125 1.429687.152344-.359375.507813-.628906.953125-.628906h7.9375c.445312 0 .796875.269531.949219.628906.285156-.664062-.199219-1.429687-.949219-1.429687zm20.660156.039062c-.871094 3.480469-3.988281 6.019531-7.761718 6.019531-1.964844 0-3.75-.691406-5.136719-1.84375l-.304688.535157c1.421875 1.3125 3.328125 2.109375 5.441407 2.109375 3.773437 0 6.890624-2.539063 7.761718-6.019532h2.726563c.070312-.265624.128906-.53125.179687-.800781zm0 0" fill="#f2f2f2"/><path d="m34.425781 27.207031c-1.292969 4.542969-5.480469 7.871094-10.433593 7.871094-2.605469 0-4.996094-.921875-6.867188-2.453125l-1.167969 2.039062c-.175781.304688-.492187.503907-.84375.519532-.015625 0-.027343 0-.039062 0-.371094.003906-.722657-.191406-.910157-.519532l-3.96875-6.945312c0-.003906-.003906-.011719-.007812-.015625-.160156.296875-.183594.671875.007812 1.007813l3.96875 6.945312c.1875.328125.539063.523438.910157.519531h.039062c.351563-.015625.667969-.210937.84375-.519531l1.167969-2.039062c1.871094 1.535156 4.261719 2.453124 6.867188 2.453124 5.308593 0 9.734374-3.824218 10.667968-8.863281zm-14.492187.496094c0 .003906-.003906.011719-.007813.015625l-1.375 2.40625c.121094.113281.25.222656.378907.328125l.996093-1.742187c.191407-.335938.171875-.710938.007813-1.007813zm0 0" fill-opacity=".235294"/><path d="m160.776313 159.839205h.416627c3.749642-.208314 7.12432-2.291448 8.999141-5.541138l12.457144-21.789586c19.956427 16.373437 45.453992 26.205831 73.243005 26.205831 56.619593 0 103.823419-40.787772 113.780801-94.532639h-30.99704c-9.290779 37.121455-42.537604 64.202202-82.783761 64.202202-22.539514 0-42.870906-8.499188-58.036124-22.497851l14.665266-25.664216c4.207931-7.332633-1.08323-16.456762-9.540756-16.456762h-84.658582c-8.457526 0-13.748687 9.124129-9.582418 16.456762l42.329291 74.076259c1.999809 3.458003 5.749451 5.5828 9.707406 5.541138zm0 0" fill="none" stroke="#212121" stroke-linejoin="round" stroke-width="3" transform="matrix(.093759 0 0 .093759 0 20.158175)"/></svg>

<?xml version="1.0" encoding="UTF-8"?>
<svg xmlns="http://www.w3.org/2000/svg" xmlns:xlink="http://www.w3.org/1999/xlink" width="48pt" height="48pt" viewBox="0 0 48 48" version="1.1">
<defs>
<linearGradient id="linear0" gradientUnits="userSpaceOnUse" x1="254" y1="233.5" x2="254" y2="254.666672" gradientTransform="matrix(0.093759,0,0,0.093759,-0.00000572259,20.158178)">
<stop offset="0" style="stop-color:rgb(0%,0%,0%);stop-opacity:0.27451;"/>
<stop offset="1" style="stop-color:rgb(0%,0%,0%);stop-opacity:0;"/>
</linearGradient>
<radialGradient id="radial0" gradientUnits="userSpaceOnUse" cx="450.908936" cy="189.579361" fx="450.908936" fy="189.579361" r="21.166656" gradientTransform="matrix(0.000000261256,-0.117199,-0.210958,-0.000000152308,79.684395,95.392999)">
<stop offset="0" style="stop-color:rgb(0%,0%,0%);stop-opacity:0.313726;"/>
<stop offset="0.222222" style="stop-color:rgb(0%,0%,0%);stop-opacity:0.27451;"/>
<stop offset="1" style="stop-color:rgb(0%,0%,0%);stop-opacity:0;"/>
</radialGradient>
<radialGradient id="radial1" gradientUnits="userSpaceOnUse" cx="450.908936" cy="189.579361" fx="450.908936" fy="189.579361" r="21.166656" gradientTransform="matrix(-0.000000261256,0.117199,0.210958,0.000000152308,-31.80678,-11.291218)">
<stop offset="0" style="stop-color:rgb(0%,0%,0%);stop-opacity:0.313726;"/>
<stop offset="0.222222" style="stop-color:rgb(0%,0%,0%);stop-opacity:0.27451;"/>
<stop offset="1" style="stop-color:rgb(0%,0%,0%);stop-opacity:0;"/>
</radialGradient>
<radialGradient id="radial2" gradientUnits="userSpaceOnUse" cx="450.908936" cy="189.579361" fx="450.908936" fy="189.579361" r="21.166656" gradientTransform="matrix(-0.000000261256,-0.117199,0.210958,-0.000000152308,-31.80678,95.392999)">
<stop offset="0" style="stop-color:rgb(0%,0%,0%);stop-opacity:0.313726;"/>
<stop offset="0.222222" style="stop-color:rgb(0%,0%,0%);stop-opacity:0.27451;"/>
<stop offset="1" style="stop-color:rgb(0%,0%,0%);stop-opacity:0;"/>
</radialGradient>
<radialGradient id="radial3" gradientUnits="userSpaceOnUse" cx="450.908936" cy="189.579361" fx="450.908936" fy="189.579361" r="21.166656" gradientTransform="matrix(0.000000261256,0.117199,-0.210958,0.000000152308,79.684393,-11.291219)">
<stop offset="0" style="stop-color:rgb(0%,0%,0%);stop-opacity:0.313726;"/>
<stop offset="0.222222" style="stop-color:rgb(0%,0%,0%);stop-opacity:0.27451;"/>
<stop offset="1" style="stop-color:rgb(0%,0%,0%);stop-opacity:0;"/>
</radialGradient>
<linearGradient id="linear1" gradientUnits="userSpaceOnUse" x1="254" y1="233.5" x2="254" y2="-168.666672" gradientTransform="matrix(0.093759,0,0,0.093759,0,20.158175)">
<stop offset="0" style="stop-color:rgb(100%,43.921569%,26.274511%);stop-opacity:1;"/>
<stop offset="1" style="stop-color:rgb(100%,54.11765%,39.607844%);stop-opacity:1;"/>
</linearGradient>
<linearGradient id="linear2" gradientUnits="userSpaceOnUse" x1="254" y1="233.5" x2="254" y2="-168.666672" gradientTransform="matrix(0.093759,0,0,0.093759,0,20.158175)">
<stop offset="0" style="stop-color:rgb(74.117649%,74.117649%,74.117649%);stop-opacity:1;"/>
<stop offset="1" style="stop-color:rgb(87.843138%,87.843138%,87.843138%);stop-opacity:1;"/>
</linearGradient>
<linearGradient id="linear3" gradientUnits="userSpaceOnUse" x1="254" y1="233.5" x2="254" y2="-168.666672" gradientTransform="matrix(0.093759,0,0,0.093759,0,20.158175)">
<stop offset="0" style="stop-color:rgb(74.117649%,74.117649%,74.117649%);stop-opacity:1;"/>
<stop offset="1" style="stop-color:rgb(87.843138%,87.843138%,87.843138%);stop-opacity:1;"/>
</linearGradient>
</defs>
<g id="surface1">
<path style=" stroke:none;fill-rule:nonzero;fill:url(#linear0);" d="M 7.691406 42.050781 L 40.1875 42.050781 L 40.1875 44.035156 L 7.691406 44.035156 Z M 7.691406 42.050781 "/>
<path style=" stroke:none;fill-rule:nonzero;fill:url(#radial0);" d="M 40.1875 42.050781 L 44.15625 42.050781 L 44.15625 40.066406 L 40.1875 40.066406 Z M 40.1875 42.050781 "/>
<path style=" stroke:none;fill-rule:nonzero;fill:url(#radial1);" d="M 7.691406 42.050781 L 3.722656 42.050781 L 3.722656 44.035156 L 7.691406 44.035156 Z M 7.691406 42.050781 "/>
<path style=" stroke:none;fill-rule:nonzero;fill:url(#radial2);" d="M 7.691406 42.050781 L 3.722656 42.050781 L 3.722656 40.066406 L 7.691406 40.066406 Z M 7.691406 42.050781 "/>
<path style=" stroke:none;fill-rule:nonzero;fill:url(#radial3);" d="M 40.1875 42.050781 L 44.15625 42.050781 L 44.15625 44.035156 L 40.1875 44.035156 Z M 40.1875 42.050781 "/>
<path style=" stroke:none;fill-rule:nonzero;fill:url(#linear1);" d="M 5.457031 4.34375 L 42.171875 4.34375 C 42.992188 4.34375 43.660156 5.011719 43.660156 5.832031 L 43.660156 40.5625 C 43.660156 41.382812 42.992188 42.050781 42.171875 42.050781 L 5.457031 42.050781 C 4.636719 42.050781 3.96875 41.382812 3.96875 40.5625 L 3.96875 5.832031 C 3.96875 5.011719 4.636719 4.34375 5.457031 4.34375 Z M 5.457031 4.34375 "/>
<path style=" stroke:none;fill-rule:nonzero;fill:rgb(0%,0%,0%);fill-opacity:0.235294;" d="M 3.96875 39.941406 L 3.96875 40.4375 C 3.96875 41.261719 4.632812 41.925781 5.457031 41.925781 L 42.171875 41.925781 C 42.996094 41.925781 43.660156 41.261719 43.660156 40.4375 L 43.660156 39.941406 C 43.660156 40.765625 42.996094 41.429688 42.171875 41.429688 L 5.457031 41.429688 C 4.632812 41.429688 3.96875 40.765625 3.96875 39.941406 Z M 3.96875 39.941406 "/>
<path style=" stroke:none;fill-rule:nonzero;fill:rgb(100%,100%,100%);fill-opacity:0.392157;" d="M 5.457031 4.472656 C 4.632812 4.472656 3.96875 5.136719 3.96875 5.960938 L 3.96875 6.457031 C 3.96875 5.632812 4.632812 4.96875 5.457031 4.96875 L 42.171875 4.96875 C 42.996094 4.96875 43.660156 5.632812 43.660156 6.457031 L 43.660156 5.960938 C 43.660156 5.136719 42.996094 4.472656 42.171875 4.472656 Z M 5.457031 4.472656 "/>
<path style=" stroke:none;fill-rule:nonzero;fill:rgb(12.941177%,12.941177%,12.941177%);fill-opacity:1;" d="M 5.457031 4.203125 C 4.558594 4.203125 3.828125 4.933594 3.828125 5.832031 L 3.828125 40.5625 C 3.828125 41.460938 4.558594 42.191406 5.457031 42.191406 L 42.171875 42.191406 C 43.070312 42.191406 43.800781 41.460938 43.800781 40.5625 L 43.800781 5.832031 C 43.800781 4.933594 43.070312 4.203125 42.171875 4.203125 Z M 5.457031 4.484375 L 42.171875 4.484375 C 42.921875 4.484375 43.519531 5.082031 43.519531 5.832031 L 43.519531 40.5625 C 43.519531 41.3125 42.921875 41.910156 42.171875 41.910156 L 5.457031 41.910156 C 4.707031 41.910156 4.109375 41.3125 4.109375 40.5625 L 4.109375 5.832031 C 4.109375 5.082031 4.707031 4.484375 5.457031 4.484375 Z M 5.457031 4.484375 "/>
<path style=" stroke:none;fill-rule:nonzero;fill:url(#linear2);" d="M 32.730469 11.195312 C 32.71875 11.195312 32.707031 11.195312 32.695312 11.195312 C 32.34375 11.210938 32.023438 11.40625 31.851562 11.714844 L 30.683594 13.753906 C 28.8125 12.21875 26.421875 11.296875 23.816406 11.296875 C 18.507812 11.296875 14.082031 15.121094 13.148438 20.164062 L 16.054688 20.164062 C 16.925781 16.683594 20.042969 14.144531 23.816406 14.144531 C 25.925781 14.144531 27.835938 14.941406 29.257812 16.25 L 27.878906 18.660156 C 27.488281 19.347656 27.984375 20.203125 28.777344 20.203125 L 36.714844 20.203125 C 37.507812 20.203125 38.003906 19.347656 37.609375 18.660156 L 33.640625 11.714844 C 33.453125 11.386719 33.105469 11.1875 32.730469 11.195312 Z M 32.730469 11.195312 "/>
<path style=" stroke:none;fill-rule:nonzero;fill:url(#linear3);" d="M 15.074219 35.144531 C 15.085938 35.144531 15.097656 35.144531 15.113281 35.144531 C 15.464844 35.125 15.78125 34.929688 15.957031 34.625 L 17.125 32.582031 C 18.996094 34.117188 21.386719 35.039062 23.992188 35.039062 C 29.300781 35.039062 33.726562 31.214844 34.660156 26.175781 L 31.753906 26.175781 C 30.882812 29.65625 27.765625 32.195312 23.992188 32.195312 C 21.878906 32.195312 19.972656 31.398438 18.550781 30.085938 L 19.925781 27.679688 C 20.320312 26.992188 19.824219 26.136719 19.03125 26.136719 L 11.09375 26.136719 C 10.300781 26.136719 9.804688 26.992188 10.195312 27.679688 L 14.164062 34.625 C 14.351562 34.949219 14.703125 35.148438 15.074219 35.144531 Z M 15.074219 35.144531 "/>
<path style=" stroke:none;fill-rule:nonzero;fill:rgb(100%,100%,100%);fill-opacity:1;" d="M 32.730469 11.195312 C 32.71875 11.195312 32.707031 11.195312 32.695312 11.195312 C 32.34375 11.210938 32.023438 11.40625 31.851562 11.714844 L 30.683594 13.753906 C 28.8125 12.21875 26.421875 11.296875 23.816406 11.296875 C 18.507812 11.296875 14.082031 15.121094 13.148438 20.164062 L 13.335938 20.164062 C 14.582031 15.542969 18.804688 12.140625 23.816406 12.140625 C 26.421875 12.140625 28.8125 13.058594 30.683594 14.59375 L 31.851562 12.554688 C 32.023438 12.246094 32.34375 12.050781 32.695312 12.035156 C 32.707031 12.035156 32.71875 12.035156 32.730469 12.035156 C 33.105469 12.027344 33.453125 12.226562 33.640625 12.554688 L 37.609375 19.5 C 37.628906 19.53125 37.640625 19.558594 37.65625 19.589844 C 37.78125 19.308594 37.785156 18.96875 37.609375 18.660156 L 33.640625 11.714844 C 33.453125 11.386719 33.105469 11.1875 32.730469 11.195312 Z M 28.9375 16.8125 L 27.878906 18.660156 C 27.703125 18.96875 27.707031 19.308594 27.835938 19.589844 C 27.847656 19.558594 27.863281 19.53125 27.878906 19.5 L 29.257812 17.09375 C 29.152344 16.996094 29.046875 16.902344 28.9375 16.8125 Z M 28.9375 16.8125 "/>
<path style=" stroke:none;fill-rule:nonzero;fill:rgb(0%,0%,0%);fill-opacity:0.235294;" d="M 23.816406 14.144531 C 20.042969 14.144531 16.925781 16.683594 16.054688 20.164062 L 13.378906 20.164062 C 13.289062 20.488281 13.210938 20.820312 13.148438 21.15625 L 16.054688 21.15625 C 16.925781 17.675781 20.042969 15.136719 23.816406 15.136719 C 25.746094 15.136719 27.503906 15.800781 28.875 16.914062 L 29.257812 16.25 C 27.835938 14.941406 25.925781 14.144531 23.816406 14.144531 Z M 27.871094 19.667969 C 27.496094 20.351562 27.988281 21.195312 28.777344 21.195312 L 36.714844 21.195312 C 37.5 21.195312 37.996094 20.351562 37.617188 19.667969 C 37.449219 19.976562 37.121094 20.203125 36.714844 20.203125 L 28.777344 20.203125 C 28.371094 20.203125 28.042969 19.976562 27.871094 19.667969 Z M 27.871094 19.667969 "/>
<path style="fill:none;stroke-width:3;stroke-linecap:butt;stroke-linejoin:round;stroke:rgb(0%,0%,0%);stroke-opacity:1;stroke-miterlimit:4;" d="M 349.091663 -95.594736 C 348.966675 -95.594736 348.841687 -95.594736 348.716699 -95.594736 C 344.967057 -95.428085 341.550717 -93.344951 339.717559 -90.053598 L 327.260415 -68.305675 C 307.303987 -84.679112 281.806422 -94.511506 254.017409 -94.511506 C 197.397816 -94.511506 150.193991 -53.723734 140.236608 0.0627959 L 171.233648 0.0627959 C 180.524427 -37.058659 213.771253 -64.139406 254.017409 -64.139406 C 276.515261 -64.139406 296.888315 -55.640218 312.053534 -41.683218 L 297.346605 -15.977339 C 293.180336 -8.644706 298.471497 0.479423 306.929023 0.479423 L 391.587605 0.479423 C 400.045131 0.479423 405.336292 -8.644706 401.128361 -15.977339 L 358.79907 -90.053598 C 356.799261 -93.553264 353.091281 -95.678061 349.091663 -95.594736 Z M 349.091663 -95.594736 " transform="matrix(0.093759,0,0,0.093759,0,20.158175)"/>
<path style=" stroke:none;fill-rule:nonzero;fill:rgb(94.901961%,94.901961%,94.901961%);fill-opacity:1;" d="M 11.09375 26.136719 C 10.34375 26.136719 9.859375 26.902344 10.140625 27.566406 C 10.292969 27.207031 10.648438 26.9375 11.09375 26.9375 L 19.03125 26.9375 C 19.476562 26.9375 19.828125 27.207031 19.980469 27.566406 C 20.265625 26.902344 19.78125 26.136719 19.03125 26.136719 Z M 31.753906 26.175781 C 30.882812 29.65625 27.765625 32.195312 23.992188 32.195312 C 22.027344 32.195312 20.242188 31.503906 18.855469 30.351562 L 18.550781 30.886719 C 19.972656 32.199219 21.878906 32.996094 23.992188 32.996094 C 27.765625 32.996094 30.882812 30.457031 31.753906 26.976562 L 34.480469 26.976562 C 34.550781 26.710938 34.609375 26.445312 34.660156 26.175781 Z M 31.753906 26.175781 "/>
<path style=" stroke:none;fill-rule:nonzero;fill:rgb(0%,0%,0%);fill-opacity:0.235294;" d="M 34.425781 27.207031 C 33.132812 31.75 28.945312 35.078125 23.992188 35.078125 C 21.386719 35.078125 18.996094 34.15625 17.125 32.625 L 15.957031 34.664062 C 15.78125 34.96875 15.464844 35.167969 15.113281 35.183594 C 15.097656 35.183594 15.085938 35.183594 15.074219 35.183594 C 14.703125 35.1875 14.351562 34.992188 14.164062 34.664062 L 10.195312 27.71875 C 10.195312 27.714844 10.191406 27.707031 10.1875 27.703125 C 10.027344 28 10.003906 28.375 10.195312 28.710938 L 14.164062 35.65625 C 14.351562 35.984375 14.703125 36.179688 15.074219 36.175781 C 15.085938 36.175781 15.097656 36.175781 15.113281 36.175781 C 15.464844 36.160156 15.78125 35.964844 15.957031 35.65625 L 17.125 33.617188 C 18.996094 35.152344 21.386719 36.070312 23.992188 36.070312 C 29.300781 36.070312 33.726562 32.246094 34.660156 27.207031 Z M 19.933594 27.703125 C 19.933594 27.707031 19.929688 27.714844 19.925781 27.71875 L 18.550781 30.125 C 18.671875 30.238281 18.800781 30.347656 18.929688 30.453125 L 19.925781 28.710938 C 20.117188 28.375 20.097656 28 19.933594 27.703125 Z M 19.933594 27.703125 "/>
<path style="fill:none;stroke-width:3;stroke-linecap:butt;stroke-linejoin:round;stroke:rgb(12.941177%,12.941177%,12.941177%);stroke-opacity:1;stroke-miterlimit:4;" d="M 160.776313 159.839205 C 160.901301 159.839205 161.026289 159.839205 161.19294 159.839205 C 164.942582 159.630891 168.31726 157.547757 170.192081 154.298067 L 182.649225 132.508481 C 202.605652 148.881918 228.103217 158.714312 255.89223 158.714312 C 312.511823 158.714312 359.715649 117.92654 369.673031 64.181673 L 338.675991 64.181673 C 329.385212 101.303128 296.138387 128.383875 255.89223 128.383875 C 233.352716 128.383875 213.021324 119.884687 197.856106 105.886024 L 212.521372 80.221808 C 216.729303 72.889175 211.438142 63.765046 202.980616 63.765046 L 118.322034 63.765046 C 109.864508 63.765046 104.573347 72.889175 108.739616 80.221808 L 151.068907 154.298067 C 153.068716 157.75607 156.818358 159.880867 160.776313 159.839205 Z M 160.776313 159.839205 " transform="matrix(0.093759,0,0,0.093759,0,20.158175)"/>
</g>
</svg>
